X:310
T: Coleman's
S: "Sully's Irish Banjo Book"
Z: B.Black
L: 1/8
M: 9/8
R: slip jig
K: G
B|e2 A ABA E2 D|E2 A A2 B c^cd|e2 A ABA E2 D|\
E2 G G2 F G2:|
B|:e2 a a2 g a2 g|e2 a a2 f g2 e|d2 g g2 f gag|\
agf g2 e d2 g:|
